X:1
T:God’s Way, His Will Be Done
T:God’s Way, His Will Be Done
T:Adam Geibel
T:William J. Eldridge, 1902
T:Public Domain Courtesy of the Cyber Hymnal™
T:Public Domain Courtesy of the Cyber Hymnal™
C:Adam Geibel
Z:Public Domain
Z:Courtesy of the Cyber Hymnal™
%%score ( 1 2 ) ( 3 4 )
L:1/8
Q:1/4=100
M:4/4
K:C
V:1 treble 
V:2 treble 
V:3 bass 
V:4 bass 
V:1
 [EG]2 | [EG]3 [EG] [^DA][DA][D^F][DA] | [EG]6 [Ec]2 | [Fc]3 [Fc] [Fd][Fc][CF][FA] | [EG]6 [EG]2 | %5
w: 1.~The|Chris- tian’s life is born of|faith And|tri- umphs in the hour of|death; It|
w: 2.~With|Je- sus in the gar- den|there, We|wres- tle in heart- search- ing|prayer; But,|
w: 3.~‘Tis|hard to trail our hopes in|dust And|yield our wills in child- like|trust; This|
w: 4.~Nor|sud- den shock of Sa- tan’s|hand, Nor|pain, nor tri- al can with-|stand The|
w: 5.~We|strain our vi- sion’s eyes to|see The|rea- son for life’s mys- te-|ry; But|
 [FG]3 [FG] [FG][FB][Ge][Fd] | [Ec]6 [EB]2 | [^FB][FA] z [^E^G] [FA]2 [Fd]2 | %8
w: cries, while sinks life’s west- ern|sun, “It’s|God’s way, His will be|
w: yield- ing, find the vic- tory|won, “It’s|God’s way, His will be|
w: is our tri- umph in God’s|Son, “It’s|God’s way, His will be|
w: faith that simp- ly rests up-|on “It’s|God’s way, His will be|
w: find, when life’s great race is|run, “It’s|God’s way, His will be|
 (!fermata!d4 !fermata!G2) ||"^Refrain" G2 | [Ge]3 [Ge] [Ad][Ac][GB][FA] | [EG]6 [EG]2 | %12
w: done.” *||||
w: done.” *||||
w: done.” *|“God’s|way!” by faith we un- der-|stand; “His|
w: done.” *||||
w: done.” *||||
 [FA]3 [FA] [^FA][Fe][Fd][Fc] | ([GB]2 [^Fc]2 [=Fd]2) G2 | [Gc]3 [Gc] [Gd][Gd][Ge][_Be] | %15
w: |||
w: |||
w: will be done,” we see His|hand; * * “Not|ours!” we learn it thro’ His|
w: |||
w: |||
 [Af]6 [FA]2 | [EA][EG] z [Ge] [^FA]2 [=FB]2 | c6 |] %18
w: |||
w: |||
w: Son; “It’s|God’s way, His will be|done.”|
w: |||
w: |||
V:2
 x2 | x8 | x8 | x8 | x8 | x8 | x8 | x8 | F6 || G2 | x8 | x8 | x8 | x6 G2 | x8 | x8 | x8 | %17
 (EEGF E2) |] %18
V:3
 [C,G,]2 | [C,G,]3 [C,G,] [C,^F,][C,F,][C,A,][C,F,] | [C,G,]6 [C,G,]2 | %3
w: ~|~ ~ ~ ~ ~ ~|~ ~|
 [F,A,]3 [F,A,] [F,A,][F,A,][F,A,][F,C] | [C,C]6 [C,C]2 | [G,B,]3 [G,B,] [G,B,][G,D][G,B,][G,B,] | %6
w: ~ ~ ~ ~ ~ ~|~ ~|~ ~ ~ ~ ~ ~|
 [A,C]6 [C,C]2 | [D,C][D,C] z [D,B,] [D,C]2 [D,C]2 | !fermata![G,B,]6 || G,2 | %10
w: ~ ~|~ ~ ~ ~ ~|~|~|
 [C,C][C,C][C,C][C,C] [F,C][F,C][F,C][F,C] | [C,C][C,C][E,C][G,C] C2 [C,C]2 | %12
w: “God’s way!” * * * * * *|* we un- der- stand; *|
 [F,C][F,C][F,C][F,C] [D,C][D,C][D,A,][D,D] | [G,D][G,D][G,A,][G,A,] [G,B,]2 G,2 | %14
w: * His will * * * * *|we see His hand; * “Not|
 [E,G,][E,G,][E,G,][E,G,] [G,B,][G,B,]CC | [F,C][F,C][F,C][F,C] [F,C]2 [F,C]2 | %16
w: * ours!” Yea, * * * thro’ His|* Son, * * * *|
 [G,C][G,C] z [G,C] [D,C]2 [G,D]2 | (CCB,A, G,2) |] %18
w: ||
V:4
 x2 | x8 | x8 | x8 | x8 | x8 | x8 | x8 | x6 || G,2 | x8 | x4 C2 x2 | x8 | x6 G,2 | x6 CC | x8 | %16
 x8 | C,6 |] %18

